icons/Wordpress.svg

<svg xmlns="http://www.w3.org/2000/svg" width="256" height="256" fill="none" viewBox="0 0 256 256"><rect width="256" height="256" fill="#0073AA" rx="60"/><path fill="#fff" d="M42.2141 127.994C42.2141 161.949 61.9469 191.293 90.561 205.199L49.641 93.0829C44.8813 103.752 42.2141 115.558 42.2141 127.994Z"/><path fill="#fff" d="M185.908 123.665C185.908 113.064 182.1 105.722 178.834 100.007C174.485 92.9408 170.409 86.9568 170.409 79.8906C170.409 72.005 176.39 64.6646 184.814 64.6646C185.195 64.6646 185.555 64.7119 185.926 64.7332C170.664 50.7509 150.331 42.2141 127.997 42.2141C98.0286 42.2141 71.6621 57.5903 56.3235 80.8798C58.3361 80.9402 60.2328 80.9826 61.8439 80.9826C70.8166 80.9826 84.7058 79.8939 84.7058 79.8939C89.3301 79.6213 89.8753 86.4133 85.2559 86.9601C85.2559 86.9601 80.6087 87.5069 75.4376 87.7779L106.676 180.696L125.449 124.393L112.084 87.7746C107.465 87.5037 103.089 86.9568 103.089 86.9568C98.466 86.6859 99.008 79.6181 103.631 79.8906C103.631 79.8906 117.797 80.9794 126.226 80.9794C135.198 80.9794 149.088 79.8906 149.088 79.8906C153.716 79.6181 154.259 86.41 149.638 86.9568C149.638 86.9568 144.981 87.5037 139.82 87.7746L170.821 179.989L179.377 151.397C183.086 139.531 185.908 131.009 185.908 123.665Z"/><path fill="#fff" d="M129.503 135.498L103.765 210.288C111.449 212.547 119.577 213.783 127.998 213.783C137.987 213.783 147.567 212.056 156.484 208.92C156.254 208.553 156.045 208.163 155.874 207.738L129.503 135.498Z"/><path fill="#fff" d="M203.269 86.8375C203.638 89.5699 203.847 92.5032 203.847 95.6584C203.847 104.363 202.221 114.149 197.324 126.385L171.121 202.144C196.624 187.272 213.778 159.643 213.778 127.996C213.779 113.081 209.97 99.0568 203.269 86.8375Z"/><path fill="#fff" d="M127.998 28C72.8603 28 28 72.857 28 127.994C28 183.138 72.8603 227.993 127.998 227.993C183.133 227.993 228 183.138 228 127.994C227.998 72.857 183.133 28 127.998 28ZM127.998 223.41C75.3887 223.41 32.5851 180.606 32.5851 127.994C32.5851 75.3855 75.3871 32.5851 127.998 32.5851C180.605 32.5851 223.405 75.3855 223.405 127.994C223.405 180.606 180.605 223.41 127.998 223.41Z"/></svg>

<svg xmlns="http://www.w3.org/2000/svg" width="256" height="256" fill="none" viewBox="0 0 256 256"><rect width="256" height="256" fill="#0073AA" rx="60"/><path fill="#fff" d="M42.21 128a85.8 85.8 0 0 0 48.35 77.2L49.64 93.08A85.5 85.5 0 0 0 42.21 128m143.69-4.33c0-10.6-3.8-17.95-7.07-23.66-4.34-7.07-8.42-13.05-8.42-20.12 0-7.89 5.98-15.23 14.4-15.23.38 0 .75.05 1.12.07A85.5 85.5 0 0 0 128 42.21a85.7 85.7 0 0 0-71.68 38.67c2.02.06 3.91.1 5.52.1 8.98 0 22.87-1.09 22.87-1.09 4.62-.27 5.17 6.52.55 7.07 0 0-4.65.55-9.82.82l31.24 92.92 18.77-56.3-13.37-36.63c-4.61-.27-9-.81-9-.81-4.61-.27-4.07-7.34.55-7.07 0 0 14.17 1.09 22.6 1.09 8.97 0 22.86-1.09 22.86-1.09 4.63-.27 5.17 6.52.55 7.07 0 0-4.66.54-9.82.81l31 92.22 8.56-28.6c3.7-11.86 6.53-20.38 6.53-27.72"/><path fill="#fff" d="m129.5 135.5-25.73 74.79a85.8 85.8 0 0 0 52.71-1.37 8 8 0 0 1-.6-1.18zm73.77-48.66q.57 4.09.58 8.82c0 8.7-1.63 18.49-6.53 30.73l-26.2 75.75A85.7 85.7 0 0 0 213.78 128a85 85 0 0 0-10.51-41.16"/><path fill="#fff" d="M128 28C72.86 28 28 72.86 28 128s44.86 100 100 100 100-44.86 100-100S183.13 28 128 28m0 195.41c-52.61 0-95.41-42.8-95.41-95.42 0-52.6 42.8-95.4 95.4-95.4s95.42 42.8 95.42 95.4c0 52.62-42.8 95.42-95.41 95.42"/></svg>
